X: 113
T: The Braes of Marr Old Set
R: reel
M: C
L: 1/8
Z: 2012 John Chambers <jc:trillian.mit.edu>
B: J. Anderson "Budget of Strathspeys, Reels and Country Dances" (Early 1800s) p.11 #3
F: http://imslp.org/wiki/Anderson%27s_Budget_of_Strathspeys,_Reels_and_Country_Dances_(Various)
K: D
(A/G/) |\
FA A(fg) afed | gfed BdBA | FAAf afed | egfa e2d :|
A |\
(FA).A.B (AB).A.F | G/G/GG2 GABG | (FA)(AB) (AB)(AF) | GAFd E2(D ||
a) |\
(fa).a.b (ab).a.f | g/g/gg2 gabg | (fa).a.b (ab).a.f | gafg e2d |]

%%sep 2 1 500
%%sep 1 1 500

